website/static/docs/assets/p_tests-snapshot.svg

<svg viewBox="0 0 1700 500" xmlns="http://www.w3.org/2000/svg"><rect fill="#97aad8" height="321.65" rx="19.09" width="710.79" x="96.64" y="82"/><path d="m126.17 112.28h258.38v258.38h-258.38zm393.49 0h258.38v258.38h-258.38z" fill="#fff"/><rect fill="#d5e2f5" height="200.19" rx="7.25" width="231.82" x="138.67" y="124.93"/><path d="m363.24 125.43a6.75 6.75 0 0 1 6.75 6.75v185.68a6.76 6.76 0 0 1 -6.75 6.76h-217.32a6.76 6.76 0 0 1 -6.75-6.76v-185.68a6.75 6.75 0 0 1 6.75-6.75zm0-1h-217.32a7.76 7.76 0 0 0 -7.75 7.75v185.68a7.77 7.77 0 0 0 7.75 7.76h217.32a7.76 7.76 0 0 0 7.75-7.76v-185.68a7.75 7.75 0 0 0 -7.75-7.75z" fill="#5971b5"/><path d="m159.41 144.09h68.69v180.52h-68.69zm77.31 0h119.16v61.4h-119.16zm0 66.68h119.16v14.25h-119.16zm0 19.53h119.16v14.25h-119.16zm0 19.53h119.16v14.25h-119.16zm0 19.54h119.16v34.18h-119.16zm0 39.46h119.16v14.25h-119.16z" fill="#97aad8"/><rect fill="#d5e2f5" height="200.19" rx="7.25" width="231.82" x="532.94" y="124.93"/><path d="m757.51 125.43a6.75 6.75 0 0 1 6.75 6.75v185.68a6.76 6.76 0 0 1 -6.75 6.76h-217.32a6.76 6.76 0 0 1 -6.75-6.76v-185.68a6.75 6.75 0 0 1 6.75-6.75zm0-1h-217.32a7.75 7.75 0 0 0 -7.75 7.75v185.68a7.76 7.76 0 0 0 7.75 7.76h217.32a7.77 7.77 0 0 0 7.75-7.76v-185.68a7.76 7.76 0 0 0 -7.75-7.75z" fill="#5971b5"/><path d="m553.68 144.09h68.69v180.52h-68.69zm77.31 0h119.16v61.4h-119.16zm0 66.68h119.16v14.25h-119.16zm0 19.53h119.16v14.25h-119.16zm0 19.53h119.16v14.25h-119.16zm0 19.54h119.16v34.18h-119.16zm0 39.46h119.16v14.25h-119.16z" fill="#97aad8"/><circle cx="114.12" cy="419.45" fill="#338846" r="48.61"/><path d="m130.56 386.13 11.49 4.3-25 55.12-35.24-17.24 9.99-6.7 20.13 7.29z" fill="#fff"/><rect fill="#ee76ab" height="321.65" rx="19.09" width="710.79" x="894.97" y="82"/><path d="m924.5 112.28h258.38v258.38h-258.38z" fill="#fff"/><rect fill="#f8c8dd" height="199.19" rx="6.75" stroke="#d23c6f" stroke-miterlimit="10" width="230.82" x="937.5" y="125.43"/><path d="m1317.99 112.28h258.38v258.38h-258.38z" fill="#fff"/><path d="m957.74 144.09h68.69v180.52h-68.69zm77.31 0h119.16v61.4h-119.16zm0 66.68h119.16v14.25h-119.16zm0 19.53h119.16v14.25h-119.16zm0 19.53h119.16v14.25h-119.16zm0 19.54h119.16v34.18h-119.16zm0 39.46h119.16v14.25h-119.16z" fill="#ee76ab"/><rect fill="#f8c8dd" height="199.19" rx="6.75" stroke="#d23c6f" stroke-miterlimit="10" width="230.82" x="1331.77" y="125.43"/><path d="m1352.01 144.09h68.69v180.52h-68.69z" fill="#d23c6f"/><path d="m1429.32 210.77h119.16v14.25h-119.16zm0 19.53h119.16v14.25h-119.16zm0 19.53h119.16v14.25h-119.16z" fill="#ee76ab"/><path d="m1429.32 269.37h119.16v34.18h-119.16z" fill="#d23c6f"/><path d="m1429.32 308.83h119.16v14.25h-119.16z" fill="#ee76ab"/><circle cx="912.39" cy="419.26" fill="#a21732" r="48.61"/><path d="m925.95 397.25h16.04l-20.97 25.54 16.65 15.42-12.33 7.41-14.19-15.62-16.65 11.1h-12.8l23.9-19.67-17.58-17.76 14.8-3.08 9.02 14.49z" fill="#fff"/></svg>

<svg xmlns="http://www.w3.org/2000/svg" viewBox="0 0 1700 500"><defs><style>.cls-1{fill:#97aad8}.cls-2{fill:#fff}.cls-3{fill:#d5e2f5}.cls-4{fill:#5971b5}.cls-6{fill:#ee76ab}.cls-7{fill:#f8c8dd;stroke:#d23c6f;stroke-miterlimit:10}.cls-8{fill:#d23c6f}</style></defs><g id="snapshot"><rect class="cls-1" x="96.64" y="82" width="710.79" height="321.65" rx="19.09"/><path class="cls-2" d="M126.17 112.28h258.38v258.38H126.17zM519.66 112.28h258.38v258.38H519.66z"/><rect class="cls-3" x="138.67" y="124.93" width="231.82" height="200.19" rx="7.25"/><path class="cls-4" d="M363.24 125.43a6.75 6.75 0 016.75 6.75v185.68a6.76 6.76 0 01-6.75 6.76H145.92a6.76 6.76 0 01-6.75-6.76V132.18a6.75 6.75 0 016.75-6.75h217.32m0-1H145.92a7.76 7.76 0 00-7.75 7.75v185.68a7.77 7.77 0 007.75 7.76h217.32a7.76 7.76 0 007.75-7.76V132.18a7.75 7.75 0 00-7.75-7.75z"/><path class="cls-1" d="M159.41 144.09h68.69v180.52h-68.69zM236.72 144.09h119.16v61.4H236.72zM236.72 210.77h119.16v14.25H236.72zM236.72 230.3h119.16v14.25H236.72zM236.72 249.83h119.16v14.25H236.72zM236.72 269.37h119.16v34.18H236.72zM236.72 308.83h119.16v14.25H236.72z"/><rect class="cls-3" x="532.94" y="124.93" width="231.82" height="200.19" rx="7.25"/><path class="cls-4" d="M757.51 125.43a6.75 6.75 0 016.75 6.75v185.68a6.76 6.76 0 01-6.75 6.76H540.19a6.76 6.76 0 01-6.75-6.76V132.18a6.75 6.75 0 016.75-6.75h217.32m0-1H540.19a7.75 7.75 0 00-7.75 7.75v185.68a7.76 7.76 0 007.75 7.76h217.32a7.77 7.77 0 007.75-7.76V132.18a7.76 7.76 0 00-7.75-7.75z"/><path class="cls-1" d="M553.68 144.09h68.69v180.52h-68.69zM630.99 144.09h119.16v61.4H630.99zM630.99 210.77h119.16v14.25H630.99zM630.99 230.3h119.16v14.25H630.99zM630.99 249.83h119.16v14.25H630.99zM630.99 269.37h119.16v34.18H630.99zM630.99 308.83h119.16v14.25H630.99z"/><g id="check"><circle cx="114.12" cy="419.45" r="48.61" fill="#338846"/><path class="cls-2" d="M130.56 386.13l11.49 4.3-25 55.12-35.24-17.24 9.99-6.7 20.13 7.29 18.63-42.77z"/></g><rect class="cls-6" x="894.97" y="82" width="710.79" height="321.65" rx="19.09"/><path class="cls-2" d="M924.5 112.28h258.38v258.38H924.5z"/><rect class="cls-7" x="937.5" y="125.43" width="230.82" height="199.19" rx="6.75"/><path class="cls-2" d="M1317.99 112.28h258.38v258.38h-258.38z"/><path class="cls-6" d="M957.74 144.09h68.69v180.52h-68.69zM1035.05 144.09h119.16v61.4h-119.16zM1035.05 210.77h119.16v14.25h-119.16zM1035.05 230.3h119.16v14.25h-119.16zM1035.05 249.83h119.16v14.25h-119.16zM1035.05 269.37h119.16v34.18h-119.16zM1035.05 308.83h119.16v14.25h-119.16z"/><g id="check-2" data-name="check"><rect class="cls-7" x="1331.77" y="125.43" width="230.82" height="199.19" rx="6.75"/><path class="cls-8" d="M1352.01 144.09h68.69v180.52h-68.69z"/><path class="cls-6" d="M1429.32 210.77h119.16v14.25h-119.16zM1429.32 230.3h119.16v14.25h-119.16zM1429.32 249.83h119.16v14.25h-119.16z"/><path class="cls-8" d="M1429.32 269.37h119.16v34.18h-119.16z"/><path class="cls-6" d="M1429.32 308.83h119.16v14.25h-119.16z"/><circle cx="912.39" cy="419.26" r="48.61" fill="#a21732"/><path class="cls-2" d="M925.95 397.25h16.04l-20.97 25.54 16.65 15.42-12.33 7.41L911.15 430l-16.65 11.1h-12.8l23.9-19.67-17.58-17.76 14.8-3.08 9.02 14.49 14.11-17.83z"/></g></g></svg>
